lib/healthicons/icons/outline/vehicles/bike.svg

<svg fill="none" height="48" viewBox="0 0 48 48" width="48" xmlns="http://www.w3.org/2000/svg"><path clip-rule="evenodd" d="m35.7452 12.1705-4.9267 1.478 3.2802 8.5788c.6094-.1485 1.2461-.2273 1.9013-.2273 4.4183 0 8 3.5817 8 8s-3.5817 8-8 8-8-3.5817-8-8c0-3.0554 1.7128-5.7107 4.2307-7.0581l-1.6477-4.3092-5.682 11.8011c-.1667.3462-.5168.5662-.901.5662h-4.0619c-.4921 3.9463-3.8585 7-7.9381 7-4.41828 0-8-3.5817-8-8s3.58172-8 8-8c4.0796 0 7.446 3.0537 7.9381 7h2.5l-4.8798-13.6637c-.0397-.1111-.0586-.2247-.0586-.3363h-1.4997c-.5523 0-1-.4477-1-1s.4477-1 1-1h4.5c.5523 0 1 .4477 1 1s-.4477 1-1 1h-.9381l1.8419 5.1574 8.1268-4.2772-.9647-2.523c-.0992-.2597-.0859-.549.0367-.7985.1227-.2494.3438-.4366.6101-.5165l5.9578-1.7873zm-13.6619 9.8894 1.9717 5.5208 4.2296-8.7846zm12.9826 8.2973-2.1132-5.5269c-1.7673 1.044-2.9527 2.9684-2.9527 5.1697 0 3.3137 2.6863 6 6 6s6-2.6863 6-6-2.6863-6-6-6c-.4036 0-.798.0399-1.1792.1158l2.1133 5.5271c.1972.5159-.0611 1.094-.577 1.2912-.5158.1973-1.0939-.061-1.2912-.5769zm-17.1489-1.3572h-5.917c-.5523 0-1 .4477-1 1s.4477 1 1 1h5.917c-.476 2.8377-2.944 5-5.917 5-3.31371 0-6-2.6863-6-6s2.68629-6 6-6c2.973 0 5.441 2.1623 5.917 5z" fill="#333" fill-rule="evenodd"/></svg>

<svg width="48" height="48" viewBox="0 0 48 48" fill="none" xmlns="http://www.w3.org/2000/svg">
<path fill-rule="evenodd" clip-rule="evenodd" d="M35.7452 12.1705L30.8185 13.6485L34.0987 22.2273C34.7081 22.0788 35.3448 22 36 22C40.4183 22 44 25.5817 44 30C44 34.4183 40.4183 38 36 38C31.5817 38 28 34.4183 28 30C28 26.9446 29.7128 24.2893 32.2307 22.9419L30.583 18.6327L24.901 30.4338C24.7343 30.78 24.3842 31 24 31H19.9381C19.446 34.9463 16.0796 38 12 38C7.58172 38 4 34.4183 4 30C4 25.5817 7.58172 22 12 22C16.0796 22 19.446 25.0537 19.9381 29H22.4381L17.5583 15.3363C17.5186 15.2252 17.4997 15.1116 17.4997 15H16C15.4477 15 15 14.5523 15 14C15 13.4477 15.4477 13 16 13H20.5C21.0523 13 21.5 13.4477 21.5 14C21.5 14.5523 21.0523 15 20.5 15H19.5619L21.4038 20.1574L29.5306 15.8802L28.5659 13.3572C28.4667 13.0975 28.48 12.8082 28.6026 12.5587C28.7253 12.3093 28.9464 12.1221 29.2127 12.0422L35.1705 10.2549L35.7452 12.1705ZM22.0833 22.0599L24.055 27.5807L28.2846 18.7961L22.0833 22.0599ZM35.0659 30.3572L32.9527 24.8303C31.1854 25.8743 30 27.7987 30 30C30 33.3137 32.6863 36 36 36C39.3137 36 42 33.3137 42 30C42 26.6863 39.3137 24 36 24C35.5964 24 35.202 24.0399 34.8208 24.1158L36.9341 29.6429C37.1313 30.1588 36.873 30.7369 36.3571 30.9341C35.8413 31.1314 35.2632 30.8731 35.0659 30.3572ZM17.917 29H12C11.4477 29 11 29.4477 11 30C11 30.5523 11.4477 31 12 31H17.917C17.441 33.8377 14.973 36 12 36C8.68629 36 6 33.3137 6 30C6 26.6863 8.68629 24 12 24C14.973 24 17.441 26.1623 17.917 29Z" fill="#333333"/>
</svg>
